docs/inc/icons/screen-full.svg

<svg height="16" viewBox="0 0 14 16" width="14" xmlns="http://www.w3.org/2000/svg"><path d="m13 10h1v3c0 .547-.453 1-1 1h-3v-1h3zm-12 0h-1v3c0 .547.453 1 1 1h3v-1h-3zm0-7h3v-1h-3c-.547 0-1 .453-1 1v3h1zm1 1h10v8h-10zm2 6h6v-4h-6zm6-8v1h3v3h1v-3c0-.547-.453-1-1-1z" fill-rule="evenodd"/></svg>

<svg xmlns="http://www.w3.org/2000/svg" width="14" height="16" viewBox="0 0 14 16"><path fill-rule="evenodd" d="M13 10h1v3c0 .547-.453 1-1 1h-3v-1h3v-3zM1 10H0v3c0 .547.453 1 1 1h3v-1H1v-3zm0-7h3V2H1c-.547 0-1 .453-1 1v3h1V3zm1 1h10v8H2V4zm2 6h6V6H4v4zm6-8v1h3v3h1V3c0-.547-.453-1-1-1h-3z"/></svg>
